**kern	**kern	**dynam
*part1	*part1	*part1
*staff2	*staff1	*
*I"Piano	*	*
*clefF4	*clefG2	*
*k[f#c#g#d#]	*k[f#c#g#d#]	*
=1	=1	=1
*	*^	*
4.G#) 4.B 4.g#	(4ff#	8ff#L	.
.	.	8b	.
.	8ee)	8eeJ	.
4.E 4.e	(4b	8bL	.
.	.	8g#	.
.	8b#X)	8b#J	.
=	=	=	=
2.A 2.e	(4.b#X'	2.f#	.
.	4.cc#')	.	.
=	=	=	=
!	!	!	!LO:DY:a
2.A#X 2.c#	4re	2.e	p
.	8re	.	.
.	(4.f#'	.	.
=	=	=	=
2.B	4.g#'	2.e	.
.	4.an')	.	.
=	=	=	=
!	!	!	!LO:DY:a
2.BB 2.F#	4re	2.A	>
.	8re	.	.
.	4.d#	.	.
=	=	=	=
[2.EE [2.E	[2.e	2.A 2.c#	]]
=	=	=	=
2.EE] 2.E]	2.e_	4.G# 4.B	pp
.	.	4.F# 4.A	.
=	=	=	=
[2.EE [2.BB	2.e_	[2.E [2.G#	.
=	=	=	=
2.EE] 2.BB]	2.e]	2.E] 2.G#]	.
*	*v	*v	*
==	==	==
*-	*-	*-
!!!system-decoration: {(s1,s2)}
